X:315
T:Roaring Mary
Z: id:dc-reel-293
M:C
L:1/8
K:D Major
DFF2 AFF2|ABdf g2fe|dedB AFAB|defd edef|!
DFF2 AFF2|ABdf g2fe|dedB ABdf|afeg fdd2:|!
abag fgfe|defd edBd|egg2 bgg2|aff2 gee2|!
DFF2 AFF2|ABdf g2fe|dedB ABdf|afeg fdd2:|!

